src/assets/logo.svg

<svg viewBox="0 0 36 36"
  xmlns="http://www.w3.org/2000/svg">
  <path d="m33.24 23.67a.75.75 0 0 1 .58 1.23l-1.41 1.69-1.41 1.75-2 2.45-.81 1a.75.75 0 0 1 -1.15 0l-.81-1-2.4-2.79-1.2-1.44-1.41-1.66a.75.75 0 0 1 .58-1.23h1.27a.76.76 0 0 0 .76-.76v-6.22a.75.75 0 0 0 -1.33-.48l-1.26 1.5-4.31 5.17a.76.76 0 0 1 -1.16 0l-4.31-5.17-1-1.2a.75.75 0 0 0 -1.34.49v11a.76.76 0 0 1 -.76.76h-5.61a.76.76 0 0 1 -.75-.76v-23.27a.76.76 0 0 1 .75-.73h6.67a.72.72 0 0 1 .58.28l5.05 6.05.72.86a.76.76 0 0 0 1.16 0l.71-.86 5.06-6.08a.72.72 0 0 1 .58-.25h6.92a.75.75 0 0 1 .75.76v18.15a.76.76 0 0 0 .76.76z" fill="#35363a"/>
</svg>

<svg id="md-reader"
  xmlns="http://www.w3.org/2000/svg" viewBox="0 0 36 36">
  <path d="M33.24,23.67a.75.75,0,0,1,.58,1.23l-1.41,1.69L31,28.34l-2,2.45-.81,1a.75.75,0,0,1-1.15,0l-.81-1L23.83,28l-1.2-1.44L21.22,24.9a.75.75,0,0,1,.58-1.23h1.27a.76.76,0,0,0,.76-.76V16.69a.75.75,0,0,0-1.33-.48l-1.26,1.5-4.31,5.17a.76.76,0,0,1-1.16,0l-4.31-5.17-1-1.2A.75.75,0,0,0,9.12,17V28a.76.76,0,0,1-.76.76H2.75A.76.76,0,0,1,2,28V4.73A.76.76,0,0,1,2.75,4H9.42a.72.72,0,0,1,.58.28l5.05,6.05.72.86a.76.76,0,0,0,1.16,0l.71-.86L22.7,4.25A.72.72,0,0,1,23.28,4H30.2a.75.75,0,0,1,.75.76V22.91a.76.76,0,0,0,.76.76Z" fill="#35363a"/>
</svg>
